public/avatar/shoe/194.svg

<svg xmlns:xlink="http://www.w3.org/1999/xlink" height="38.3" width="36.05" xmlns="http://www.w3.org/2000/svg"><use height="19.2" transform="translate(13.4 9.15)" width="20" xlink:href="#a"/><defs><g id="a" fill-rule="evenodd"><path d="m5.8-4.35-.75-.3L5-4.6v.05l-.7-.25-.1.1 1.15 1.15Q3.7-2.7 1.9-2.5q-.05-.65-.75-1.05-.5.6-.15 1.1Q1.05-.9 2.05.6q.25.3.55.4Q5.4 2 7.95.2q.65-.1.5-.6l-.1-.3-.05-.05-.65.35L5.2.7 3.6.6q2.15.1 4-1.3v-.4q.15-1.85-1.1-2.85l-.7-.4M1.9-2.3l.05.1.05.1-.1-.15v-.05m.6 1.15.15.25.7 1.45Q3 .25 2.8-.3l-.3-.85M6.85-3.8q1.15.85 1.4 2.6l.05.2q.65.45.3 1.05l.05.05q.6 1.5-.45 2.15l-.1.25 1 2.05q.85 2.3.3 4.65l-.45 1q.8 1.95-2.5 2.65-7.55 1.55-14.9-.6-1.75-.5-1.1-1.7-1.15-.9-.75-2.7.7-3.15 2.3-5.4-.6-.45-.4-1.2L-8.05 0l-.4-.65q-.25-.6.4-.85l.35-.05.1-.25.35-1.65q.35-1.2 1.5-1.5l3.05-.65h.5l3.25-.1q3 .05 5.45 1.5l.35.4m1.4 5.3.25-.35L8.2.5l-.15.1q-2.2 1.55-4.6 1.3V2q0 .25-.25.15-1-.35-1.6-1.3-1-1.6-1-3.3L-.45-2.5q.1.65-.2 1.5-.3.9-.85 1.65-1.1 1.5-2.6 1.45Q-6 2-7.4.75l-.4-.4-.15.85.05-.05.65.65q1.2.6 2.25 1.4l1.75.45q.3 0 .2-.1l.65-.7.65-1.05.8-1.05.7-.9q1.3 1.1 2.1 2.75.3.6.85.8.65.2.65-.4 2.15.05 4.25-1.05l.65-.45M7.4 7.6 7 6.8 5.7 5.6q-1.1-.65-1.85-1.65l-1.2.25-.2.05H2.2L2 4.1l-.05-.15-.2-.2-.95-1.8-.8.35.05.9.15.05.1-.05h.05l-.05.1.4.5v.05l-.6.05.05.75 2.15.2h.05l-2.2.25v.1l.2.05h1.6l1.6.3H3q-1.1-.25-1.8.4l.5.4H.2l.05.95 1.45-.25h.25v.05l-1.4.55.15.1.05.05-.5.1v2.9l2.5-.05L7.5 8.9v-.6l-.1-.7m1.1 3.55.25-.25-.1-.1q-.15-.35-.55-.3l-.35.2-1.8.4-2.05.3q-5.75.75-11.15-.05L-8 11.2h-.25l-.75-.15q1.1.85 2.65 1.2 6.25 1.35 12.65.3 2.5-.4 2.2-1.4M-3.6-5.05l-.35-.05-1.95.5-.2.2-.15.15-.65 1.15-.05.6-.3.85-.05.15.75.65.6.55 1.85.9Q-5.65.6-6.85-.5l-.5-.5-.15-.15-.15-.1-.1-.1-.2.2.05.15q-.45.9.7 1.65l1.1.65Q-3 2.85-1.45-.1l.55-1q.4-.75.35-1.25Q-.5-2.7-1-3.2l-.05.05-.1-.1-.15.1L-2.6.1l-.45.35-.2.05-.3.25Q-2-.7-1.85-2.45v-.3Q-3.45-3.2-4.8-4.1l-.05-.15.85-.2v-.2h.05l.2-.05 2.3-.35-.65-.15h-.45l-1.05.15m3.1 14.1-.1-1-1 .35v-.05l.85-.6q-.5-.3-.6-.95l.7.3v-.8q-1.85-.15-3.4.05.4-.35-.3-.55l-.05-.1 2.5-.3-.4-.15q.35-.3.95-.35l.8-.05v-.1l-1.5-.05 1.25-.1h.25l.05-.65-.15.05-.1.05.25-.25v-.05q-.4-.25-.3-.85l.4.1.1-.5-2.2 1.05.3-.5-.85 1.55h-.1l-.5-.15-2.9-.2-.5-.15-.6.65h-.05l-.25.25q-.75.6-1.1 1.6l-.1.3.2 1q3.15 1.75 6.6 2.8l1.35.1-.1-.05v-.05l.9-.2-.25-1.1-.05-.35m-.25-8 .4-.5.25.35-.25-.4-.4.55m.6 9.6-.05.15h.1l-.05-.15" fill="#371200" transform="translate(10.4 5.7)"/><path d="M1.9-2.5q1.8-.2 3.45-1.05L4.2-4.7l.1-.1.7.25v-.05l.05-.05.75.3-.3-.05q-.3 0-.15.2l.25.65Q4.3-2.7 2.85-2.3q1.55.35 3.25-.4l.3-.2q.4.95 1.05 1.45v-.05q.05-1.35-.9-2.3l-.05-.15q1.25 1 1.1 2.85v.4Q5.75.7 3.6.6L3.35.55 2.65-.9l-.15-.25-.05-.05L2-2.1l-.05-.1-.05-.1v-.2m6.6 3.65L8.25.8q-.4.15-.65.55-.15.2.05.2l.6-.05-.65.45Q5.5 3.05 3.35 3q0 .6-.65.4-.55-.2-.85-.8Q1.05.95-.25-.15l-.7.9-.8 1.05-.65 1.05-.65.7q.1.1-.2.1L-5 3.2q-1.05-.8-2.25-1.4l-.65-.65-.05.05.15-.85.4.4Q-6 2-4.1 2.1q1.5.05 2.6-1.45Q-.95-.1-.65-1q.3-.85.2-1.5l1.05.05q0 1.7 1 3.3.6.95 1.6 1.3.25.1.25-.15v-.1q2.4.25 4.6-1.3L8.2.5l.3.65m-4.4 1.4-.05-.05q-1.5-.2-2.65-1.3l.1.45q.75 2 2.6.9m-.55 3-1.6-.3H.35l-.2-.05v-.1l2.2-.25H2.3l-2.15-.2L.1 3.9l.6-.05V3.8l-.4-.5.05-.1H.3l-.1.05-.15-.05L0 2.3l.8-.35.95 1.8.2.2.05.15.2.15h.25l.2-.05 1.2-.25q.75 1 1.85 1.65L7 6.8l.4.8v.75l.1-.05v.6l-4.75 1.85-2.5.05V9.4l3.25-.1q1.4.2 2.9-.6l.75-.25-.15-.3q.5-1.25-.9-1.65-.95-.95-2.55-.95M1.95 7.1v.2l-.1.85v.2l-.15.05q-.2.1-.1.15l.35.2.1.05.7.35-2.5-.05V7.9l.5-.1-.05-.05-.15-.1 1.4-.55m0-.05H1.7L.25 7.3.2 6.35h1.5l.25.7M-3.6-5.05l1.05-.15h.45l.65.15-2.3.35-.2.05H-4v.2l-.85.2-.05-.3.15-.05L-3.6-5v-.05m-1.2.95q1.35.9 2.95 1.35v.3Q-2-.7-3.55.75L-3.6.8l-.5-.2-1.85-.9-.6-.55-.75-.65.05-.15.3-.85 1.1.05.7-.45q.45.35 1.2.6l1.3-.05q.35-.15 0-.2-1.7-.25-2.15-1.55m-2.85 8.85.6-.65.5.15 2.9.2.5.15h.1l.85-1.55-.3.5L-.3 2.5l-.1.5-.4-.1q-.1.6.3.85v.05l-.25.25.1-.05.15-.05-.05.65H-.8l-1.25.1 1.5.05v.1l-.8.05q-.6.05-.95.35l.4.15-2.5.3.05.1q.7.2.3.55 1.55-.2 3.4-.05v.8l-.7-.3q.1.65.6.95l-.85.6v.05l1-.35.1 1L-3.15 9h-.25l2.95.4.25 1.1-.9.2v.05l.1.05-1.35-.1q-3.45-1.05-6.6-2.8l-.2-1 .1-.3q.35-1 1.1-1.6-1.5 2.75 1.05 3.05v.05q.25.55.75.3 1.9-.85 0-1.9-.7.3-.85.8-.55-1.2-.65-2.55m6.9-3.7.4-.55.25.4-.25-.35-.4.5m-4.05 2.1q.6.5 1.2.2 1.15-.6 1.75-1.75-2.15 2-4.45.35l1.5 1.2m-1.85-1.4-.05-.05q-.3-.6-.9-.95l-.1.05-.1.1-.05.05q.35.8 1.2.8m6.5 8.9.05.15h-.1l.05-.15" fill="#64350b" transform="translate(10.4 5.7)"/><path d="m7.65-.4.65-.35.05.05.1.3q.15.5-.5.6L7.3.25l.35-.65M1-2.45q-.35-.5.15-1.1.7.4.75 1.05v.25l-.05.3v.05Q1.2-2.15 1-2.45m1.05 1.2Q2.55 0 3.6.85 2 .7 2-1.2l.05-.05m5.7 11.95.35-.2q.4-.05.55.3l.1.1-.25.25q-1.7 1.5-4.05.65 1.75-.3 3.3-1.1m-15.95.5h.2l.75.15 3 .75q-2.15.4-3.85-.85h-.05l-.05-.05m7.15-14.35L-1-3.2q.5.5.45.85-.1.3-.75.5L-1.4-2q-.15-.8.35-1.15M-7.9-1l-.05-.15.2-.2.1.1.3.25.5.5L-5.7.7v.05Q-7.5.7-7.9-1m4.25 2.15L-2.2 0q-.05 1.45-1.5 1.25l.05-.1" fill="#fff" transform="translate(10.4 5.7)"/><path d="m3.6.6 1.6.1L7.65-.4 7.3.25 7.95.2Q5.4 2 2.6 1 2.3.9 2.05.6 1.05-.9 1-2.45q.2.3.85.55v-.05l.05-.3.1.15.45.9.05.05.3.85q.2.55.55.85L3.6.6M2.05-1.25 2-1.2Q2 .7 3.6.85 2.55 0 2.05-1.25m6.45 12.4q.3 1-2.2 1.4-6.4 1.05-12.65-.3-1.55-.35-2.65-1.2l.75.15h.05l.05.05-.1-.05.05.15.1-.1q1.7 1.25 3.85.85l-3-.75q5.4.8 11.15.05l2.05-.3 1.8-.4q-1.55.8-3.3 1.1 2.35.85 4.05-.65M-3.55.75l.3-.25.2-.05.45-.35 1.3-3.25.15-.1.1.1q-.5.35-.35 1.15l.1.15q.65-.2.75-.5.05.5-.35 1.25l-.55 1Q-3 2.85-6.1 1.3L-7.2.65Q-8.35-.1-7.9-1-7.5.7-5.7.75V.7L-6.85-.5Q-5.65.6-4.1.6l.5.2.05-.05m-4.1-2 .15.1.15.15-.3-.25m4 2.4-.05.1q1.45.2 1.5-1.25l-1.45 1.15" fill="#ffbe46" transform="translate(10.4 5.7)"/><path d="m5.8-4.35.7.4.05.15q.95.95.9 2.3v.05Q6.8-1.95 6.4-2.9l-.3.2q-1.7.75-3.25.4Q4.3-2.7 5.6-3.55l-.25-.65q-.15-.2.15-.2l.3.05m2.7 5.5-.25.35-.6.05q-.2 0-.05-.2.25-.4.65-.55l.25.35m-4.4 1.4q-1.85 1.1-2.6-.9l-.1-.45q1.15 1.1 2.65 1.3l.05.05m-.55 3q1.6 0 2.55.95 1.4.4.9 1.65l.15.3-.75.25q-1.5.8-2.9.6l-3.25.1v-.3l2.5.05-.7-.35-.1-.05-.35-.2q-.1-.05.1-.15l.15-.05v-.2l.1-.85v-.25l-.25-.7-.5-.4q.7-.65 1.8-.4h.55M7.5 8.3l-.1.05V7.6l.1.7M-6.95-2.5l.05-.6.65-1.15.15-.15.2-.2 1.95-.5.35.05V-5l-1.15.4-.15.05.05.3.05.15q.45 1.3 2.15 1.55.35.05 0 .2l-1.3.05q-.75-.25-1.2-.6l-.7.45-1.1-.05m-.7 7.25q.1 1.35.65 2.55.15-.5.85-.8 1.9 1.05 0 1.9-.5.25-.75-.3v-.05Q-9.45 7.75-7.95 5l.25-.25h.05m7.2 4.65L-3.4 9h.25l2.65.05.05.35M-4.8 3.15l-1.5-1.2Q-4 3.6-1.85 1.6q-.6 1.15-1.75 1.75-.6.3-1.2-.2m-1.85-1.4q-.85 0-1.2-.8L-7.8.9l.1-.1.1-.05q.6.35.9.95l.05.05" fill="#a95101" transform="translate(10.4 5.7)"/></g></defs></svg>

<?xml version="1.0" encoding="UTF-8" standalone="no"?>
<svg xmlns:xlink="http://www.w3.org/1999/xlink" height="38.3px" width="36.05px" xmlns="http://www.w3.org/2000/svg">
  <g transform="matrix(1.0, 0.0, 0.0, 1.0, 23.8, 14.85)">
    <use height="19.2" transform="matrix(1.0, 0.0, 0.0, 1.0, -10.4, -5.7)" width="20.0" xlink:href="#shape0"/>
  </g>
  <defs>
    <g id="shape0" transform="matrix(1.0, 0.0, 0.0, 1.0, 10.4, 5.7)">
      <path d="M5.8 -4.35 L5.05 -4.65 5.0 -4.6 5.0 -4.55 4.3 -4.8 4.2 -4.7 5.35 -3.55 Q3.7 -2.7 1.9 -2.5 1.85 -3.15 1.15 -3.55 0.65 -2.95 1.0 -2.45 1.05 -0.9 2.05 0.6 2.3 0.9 2.6 1.0 5.4 2.0 7.95 0.2 8.6 0.1 8.45 -0.4 L8.35 -0.7 8.3 -0.75 7.65 -0.4 5.2 0.7 3.6 0.6 Q5.75 0.7 7.6 -0.7 L7.6 -1.1 Q7.75 -2.95 6.5 -3.95 L5.8 -4.35 M1.9 -2.3 L1.95 -2.2 2.0 -2.1 1.9 -2.25 1.9 -2.3 M2.5 -1.15 L2.65 -0.9 3.35 0.55 Q3.0 0.25 2.8 -0.3 L2.5 -1.15 M6.85 -3.8 Q8.0 -2.95 8.25 -1.2 L8.3 -1.0 Q8.95 -0.55 8.6 0.05 L8.65 0.1 Q9.25 1.6 8.2 2.25 L8.1 2.5 9.1 4.55 Q9.95 6.85 9.4 9.2 L8.95 10.2 Q9.75 12.15 6.45 12.85 -1.1 14.4 -8.45 12.25 -10.2 11.75 -9.55 10.55 -10.7 9.65 -10.3 7.85 -9.6 4.7 -8.0 2.45 -8.6 2.0 -8.4 1.25 L-8.05 0.0 -8.45 -0.65 Q-8.7 -1.25 -8.05 -1.5 L-7.7 -1.55 -7.6 -1.8 -7.25 -3.45 Q-6.9 -4.65 -5.75 -4.95 L-2.7 -5.6 -2.2 -5.6 1.05 -5.7 Q4.05 -5.65 6.5 -4.2 L6.85 -3.8 M8.25 1.5 L8.5 1.15 8.2 0.5 8.05 0.6 Q5.85 2.15 3.45 1.9 L3.45 2.0 Q3.45 2.25 3.2 2.15 2.2 1.8 1.6 0.85 0.6 -0.75 0.6 -2.45 L-0.45 -2.5 Q-0.35 -1.85 -0.65 -1.0 -0.95 -0.1 -1.5 0.65 -2.6 2.15 -4.1 2.1 -6.0 2.0 -7.4 0.75 L-7.8 0.35 -7.95 1.2 -7.9 1.15 -7.25 1.8 Q-6.05 2.4 -5.0 3.2 L-3.25 3.65 Q-2.95 3.65 -3.05 3.55 L-2.4 2.85 -1.75 1.8 -0.95 0.75 -0.25 -0.15 Q1.05 0.95 1.85 2.6 2.15 3.2 2.7 3.4 3.35 3.6 3.35 3.0 5.5 3.05 7.6 1.95 L8.25 1.5 M7.4 7.6 L7.0 6.8 5.7 5.6 Q4.6 4.95 3.85 3.95 L2.65 4.2 2.45 4.25 2.2 4.25 2.0 4.1 1.95 3.95 1.75 3.75 0.8 1.95 0.0 2.3 0.05 3.2 0.2 3.25 0.3 3.2 0.35 3.2 0.3 3.3 0.7 3.8 0.7 3.85 0.1 3.9 0.15 4.65 2.3 4.85 2.35 4.85 0.15 5.1 0.15 5.2 0.35 5.25 1.95 5.25 3.55 5.55 3.0 5.55 Q1.9 5.3 1.2 5.95 L1.7 6.35 0.2 6.35 0.25 7.3 1.7 7.05 1.95 7.05 1.95 7.1 0.55 7.65 0.7 7.75 0.75 7.8 0.25 7.9 0.25 9.1 0.25 9.4 0.25 10.8 2.75 10.75 7.5 8.9 7.5 8.3 7.4 7.6 M8.5 11.15 L8.75 10.9 8.65 10.8 Q8.5 10.45 8.1 10.5 L7.75 10.7 5.95 11.1 3.9 11.4 Q-1.85 12.15 -7.25 11.35 L-8.0 11.2 -8.2 11.2 -8.25 11.2 -9.0 11.05 Q-7.9 11.9 -6.35 12.25 -0.1 13.6 6.3 12.55 8.8 12.15 8.5 11.15 M-3.6 -5.05 L-3.95 -5.1 -5.9 -4.6 -6.1 -4.4 -6.25 -4.25 -6.9 -3.1 -6.95 -2.5 -7.25 -1.65 -7.3 -1.5 -6.55 -0.85 -5.95 -0.3 -4.1 0.6 Q-5.65 0.6 -6.85 -0.5 L-7.35 -1.0 -7.5 -1.15 -7.65 -1.25 -7.75 -1.35 -7.95 -1.15 -7.9 -1.0 Q-8.35 -0.1 -7.2 0.65 L-6.1 1.3 Q-3.0 2.85 -1.45 -0.1 L-0.9 -1.1 Q-0.5 -1.85 -0.55 -2.35 -0.5 -2.7 -1.0 -3.2 L-1.05 -3.15 -1.15 -3.25 -1.3 -3.15 -2.6 0.1 -3.05 0.45 -3.25 0.5 -3.55 0.75 Q-2.0 -0.7 -1.85 -2.45 L-1.85 -2.75 Q-3.45 -3.2 -4.8 -4.1 L-4.85 -4.25 -4.0 -4.45 -4.0 -4.6 -4.0 -4.65 -3.95 -4.65 -3.75 -4.7 -1.45 -5.05 -2.1 -5.2 -2.55 -5.2 -3.6 -5.05 M-0.5 9.05 L-0.6 8.05 -1.6 8.4 -1.6 8.35 -0.75 7.75 Q-1.25 7.45 -1.35 6.8 L-0.65 7.1 -0.65 6.35 -0.65 6.3 Q-2.5 6.15 -4.05 6.35 -3.65 6.0 -4.35 5.8 L-4.4 5.7 -1.9 5.4 -2.3 5.25 Q-1.95 4.95 -1.35 4.9 L-0.55 4.85 -0.55 4.75 -2.05 4.7 -0.8 4.6 -0.55 4.6 -0.5 3.95 -0.65 4.0 -0.75 4.05 -0.5 3.8 -0.5 3.75 Q-0.9 3.5 -0.8 2.9 L-0.4 3.0 -0.3 2.5 -2.5 3.55 -2.2 3.05 -3.05 4.6 -3.15 4.6 -3.65 4.45 -6.55 4.25 -7.05 4.1 -7.65 4.75 -7.7 4.75 -7.95 5.0 Q-8.7 5.6 -9.05 6.6 L-9.15 6.9 -8.95 7.9 Q-5.8 9.65 -2.35 10.7 L-1.0 10.8 -1.1 10.75 -1.1 10.7 -0.2 10.5 -0.45 9.4 -0.5 9.05 M-0.75 1.05 L-0.35 0.55 -0.1 0.9 -0.35 0.5 -0.75 1.05 M-0.15 10.65 L-0.2 10.8 -0.1 10.8 -0.15 10.65" fill="#371200" fill-rule="evenodd" stroke="none"/>
      <path d="M1.9 -2.5 Q3.7 -2.7 5.35 -3.55 L4.2 -4.7 4.3 -4.8 5.0 -4.55 5.0 -4.6 5.05 -4.65 5.8 -4.35 5.5 -4.4 Q5.2 -4.4 5.35 -4.2 L5.6 -3.55 Q4.3 -2.7 2.85 -2.3 4.4 -1.95 6.1 -2.7 L6.4 -2.9 Q6.8 -1.95 7.45 -1.45 L7.45 -1.5 Q7.5 -2.85 6.55 -3.8 L6.5 -3.95 Q7.75 -2.95 7.6 -1.1 L7.6 -0.7 Q5.75 0.7 3.6 0.6 L3.35 0.55 2.65 -0.9 2.5 -1.15 2.45 -1.2 2.0 -2.1 1.95 -2.2 1.9 -2.3 1.9 -2.5 M8.5 1.15 L8.25 0.8 Q7.85 0.95 7.6 1.35 7.45 1.55 7.65 1.55 L8.25 1.5 7.6 1.95 Q5.5 3.05 3.35 3.0 3.35 3.6 2.7 3.4 2.15 3.2 1.85 2.6 1.05 0.95 -0.25 -0.15 L-0.95 0.75 -1.75 1.8 -2.4 2.85 -3.05 3.55 Q-2.95 3.65 -3.25 3.65 L-5.0 3.2 Q-6.05 2.4 -7.25 1.8 L-7.9 1.15 -7.95 1.2 -7.8 0.35 -7.4 0.75 Q-6.0 2.0 -4.1 2.1 -2.6 2.15 -1.5 0.65 -0.95 -0.1 -0.65 -1.0 -0.35 -1.85 -0.45 -2.5 L0.6 -2.45 Q0.6 -0.75 1.6 0.85 2.2 1.8 3.2 2.15 3.45 2.25 3.45 2.0 L3.45 1.9 Q5.85 2.15 8.05 0.6 L8.2 0.5 8.5 1.15 M4.1 2.55 L4.05 2.5 Q2.55 2.3 1.4 1.2 L1.5 1.65 Q2.25 3.65 4.1 2.55 M3.55 5.55 L1.95 5.25 0.35 5.25 0.15 5.2 0.15 5.1 2.35 4.85 2.3 4.85 0.15 4.65 0.1 3.9 0.7 3.85 0.7 3.8 0.3 3.3 0.35 3.2 0.3 3.2 0.2 3.25 0.05 3.2 0.0 2.3 0.8 1.95 1.75 3.75 1.95 3.95 2.0 4.1 2.2 4.25 2.45 4.25 2.65 4.2 3.85 3.95 Q4.6 4.95 5.7 5.6 L7.0 6.8 7.4 7.6 7.4 8.35 7.5 8.3 7.5 8.9 2.75 10.75 0.25 10.8 0.25 9.4 3.5 9.3 Q4.9 9.5 6.4 8.7 L7.15 8.45 7.0 8.15 Q7.5 6.9 6.1 6.5 5.15 5.55 3.55 5.55 M1.95 7.1 L1.95 7.3 1.85 8.15 1.85 8.35 1.7 8.4 Q1.5 8.5 1.6 8.55 L1.95 8.75 2.05 8.8 2.75 9.15 0.25 9.1 0.25 7.9 0.75 7.8 0.7 7.75 0.55 7.65 1.95 7.1 M1.95 7.05 L1.7 7.05 0.25 7.3 0.2 6.35 1.7 6.35 1.95 7.05 M-3.6 -5.05 L-2.55 -5.2 -2.1 -5.2 -1.45 -5.05 -3.75 -4.7 -3.95 -4.65 -4.0 -4.65 -4.0 -4.6 -4.0 -4.45 -4.85 -4.25 -4.9 -4.55 -4.75 -4.6 -3.6 -5.0 -3.6 -5.05 M-4.8 -4.1 Q-3.45 -3.2 -1.85 -2.75 L-1.85 -2.45 Q-2.0 -0.7 -3.55 0.75 L-3.6 0.8 -4.1 0.6 -5.95 -0.3 -6.55 -0.85 -7.3 -1.5 -7.25 -1.65 -6.95 -2.5 -5.85 -2.45 -5.15 -2.9 Q-4.7 -2.55 -3.95 -2.3 L-2.65 -2.35 Q-2.3 -2.5 -2.65 -2.55 -4.35 -2.8 -4.8 -4.1 M-7.65 4.75 L-7.05 4.1 -6.55 4.25 -3.65 4.45 -3.15 4.6 -3.05 4.6 -2.2 3.05 -2.5 3.55 -0.3 2.5 -0.4 3.0 -0.8 2.9 Q-0.9 3.5 -0.5 3.75 L-0.5 3.8 -0.75 4.05 -0.65 4.0 -0.5 3.95 -0.55 4.6 -0.8 4.6 -2.05 4.7 -0.55 4.75 -0.55 4.85 -1.35 4.9 Q-1.95 4.95 -2.3 5.25 L-1.9 5.4 -4.4 5.7 -4.35 5.8 Q-3.65 6.0 -4.05 6.35 -2.5 6.15 -0.65 6.3 L-0.65 6.35 -0.65 7.1 -1.35 6.8 Q-1.25 7.45 -0.75 7.75 L-1.6 8.35 -1.6 8.4 -0.6 8.05 -0.5 9.05 -3.15 9.0 -3.4 9.0 -0.45 9.4 -0.2 10.5 -1.1 10.7 -1.1 10.75 -1.0 10.8 -2.35 10.7 Q-5.8 9.65 -8.95 7.9 L-9.15 6.9 -9.05 6.6 Q-8.7 5.6 -7.95 5.0 -9.45 7.75 -6.9 8.05 L-6.9 8.1 Q-6.65 8.65 -6.15 8.4 -4.25 7.55 -6.15 6.5 -6.85 6.8 -7.0 7.3 -7.55 6.1 -7.65 4.75 M-0.75 1.05 L-0.35 0.5 -0.1 0.9 -0.35 0.55 -0.75 1.05 M-4.8 3.15 Q-4.2 3.65 -3.6 3.35 -2.45 2.75 -1.85 1.6 -4.0 3.6 -6.3 1.95 L-4.8 3.15 M-6.65 1.75 L-6.7 1.7 Q-7.0 1.1 -7.6 0.75 L-7.7 0.8 -7.8 0.9 -7.85 0.95 Q-7.5 1.75 -6.65 1.75 M-0.15 10.65 L-0.1 10.8 -0.2 10.8 -0.15 10.65" fill="#64350b" fill-rule="evenodd" stroke="none"/>
      <path d="M7.65 -0.4 L8.3 -0.75 8.35 -0.7 8.45 -0.4 Q8.6 0.1 7.95 0.2 L7.3 0.25 7.65 -0.4 M1.0 -2.45 Q0.65 -2.95 1.15 -3.55 1.85 -3.15 1.9 -2.5 L1.9 -2.3 1.9 -2.25 1.85 -1.95 1.85 -1.9 Q1.2 -2.15 1.0 -2.45 M2.05 -1.25 Q2.55 0.0 3.6 0.85 2.0 0.7 2.0 -1.2 L2.05 -1.25 M7.75 10.7 L8.1 10.5 Q8.5 10.45 8.65 10.8 L8.75 10.9 8.5 11.15 Q6.8 12.65 4.45 11.8 6.2 11.5 7.75 10.7 M-8.2 11.2 L-8.0 11.2 -7.25 11.35 -4.25 12.1 Q-6.4 12.5 -8.1 11.25 L-8.15 11.25 -8.2 11.2 M-1.05 -3.15 L-1.0 -3.2 Q-0.5 -2.7 -0.55 -2.35 -0.65 -2.05 -1.3 -1.85 L-1.4 -2.0 Q-1.55 -2.8 -1.05 -3.15 M-7.9 -1.0 L-7.95 -1.15 -7.75 -1.35 -7.65 -1.25 -7.35 -1.0 -6.85 -0.5 -5.7 0.7 -5.7 0.75 Q-7.5 0.7 -7.9 -1.0 M-3.65 1.15 L-2.2 0.0 Q-2.25 1.45 -3.7 1.25 L-3.65 1.15" fill="#ffffff" fill-rule="evenodd" stroke="none"/>
      <path d="M3.6 0.6 L5.2 0.7 7.65 -0.4 7.3 0.25 7.95 0.2 Q5.4 2.0 2.6 1.0 2.3 0.9 2.05 0.6 1.05 -0.9 1.0 -2.45 1.2 -2.15 1.85 -1.9 L1.85 -1.95 1.9 -2.25 2.0 -2.1 2.45 -1.2 2.5 -1.15 2.8 -0.3 Q3.0 0.25 3.35 0.55 L3.6 0.6 M2.05 -1.25 L2.0 -1.2 Q2.0 0.7 3.6 0.85 2.55 0.0 2.05 -1.25 M8.5 11.15 Q8.8 12.15 6.3 12.55 -0.1 13.6 -6.35 12.25 -7.9 11.9 -9.0 11.05 L-8.25 11.2 -8.2 11.2 -8.15 11.25 -8.25 11.2 -8.2 11.35 -8.1 11.25 Q-6.4 12.5 -4.25 12.1 L-7.25 11.35 Q-1.85 12.15 3.9 11.4 L5.95 11.1 7.75 10.7 Q6.2 11.5 4.45 11.8 6.8 12.65 8.5 11.15 M-3.55 0.75 L-3.25 0.5 -3.05 0.45 -2.6 0.1 -1.3 -3.15 -1.15 -3.25 -1.05 -3.15 Q-1.55 -2.8 -1.4 -2.0 L-1.3 -1.85 Q-0.65 -2.05 -0.55 -2.35 -0.5 -1.85 -0.9 -1.1 L-1.45 -0.1 Q-3.0 2.85 -6.1 1.3 L-7.2 0.65 Q-8.35 -0.1 -7.9 -1.0 -7.5 0.7 -5.7 0.75 L-5.7 0.7 -6.85 -0.5 Q-5.65 0.6 -4.1 0.6 L-3.6 0.8 -3.55 0.75 M-7.65 -1.25 L-7.5 -1.15 -7.35 -1.0 -7.65 -1.25 M-3.65 1.15 L-3.7 1.25 Q-2.25 1.45 -2.2 0.0 L-3.65 1.15" fill="#ffbe46" fill-rule="evenodd" stroke="none"/>
      <path d="M5.8 -4.35 L6.5 -3.95 6.55 -3.8 Q7.5 -2.85 7.45 -1.5 L7.45 -1.45 Q6.8 -1.95 6.4 -2.9 L6.1 -2.7 Q4.4 -1.95 2.85 -2.3 4.3 -2.7 5.6 -3.55 L5.35 -4.2 Q5.2 -4.4 5.5 -4.4 L5.8 -4.35 M8.5 1.15 L8.25 1.5 7.65 1.55 Q7.45 1.55 7.6 1.35 7.85 0.95 8.25 0.8 L8.5 1.15 M4.1 2.55 Q2.25 3.65 1.5 1.65 L1.4 1.2 Q2.55 2.3 4.05 2.5 L4.1 2.55 M3.55 5.55 Q5.15 5.55 6.1 6.5 7.5 6.9 7.0 8.15 L7.15 8.45 6.4 8.7 Q4.9 9.5 3.5 9.3 L0.25 9.4 0.25 9.1 2.75 9.15 2.05 8.8 1.95 8.75 1.6 8.55 Q1.5 8.5 1.7 8.4 L1.85 8.35 1.85 8.15 1.95 7.3 1.95 7.1 1.95 7.05 1.7 6.35 1.2 5.95 Q1.9 5.3 3.0 5.55 L3.55 5.55 M7.5 8.3 L7.4 8.35 7.4 7.6 7.5 8.3 M-6.95 -2.5 L-6.9 -3.1 -6.25 -4.25 -6.1 -4.4 -5.9 -4.6 -3.95 -5.1 -3.6 -5.05 -3.6 -5.0 -4.75 -4.6 -4.9 -4.55 -4.85 -4.25 -4.8 -4.1 Q-4.35 -2.8 -2.65 -2.55 -2.3 -2.5 -2.65 -2.35 L-3.95 -2.3 Q-4.7 -2.55 -5.15 -2.9 L-5.85 -2.45 -6.95 -2.5 M-7.65 4.75 Q-7.55 6.1 -7.0 7.3 -6.85 6.8 -6.15 6.5 -4.25 7.55 -6.15 8.4 -6.65 8.65 -6.9 8.1 L-6.9 8.05 Q-9.45 7.75 -7.95 5.0 L-7.7 4.75 -7.65 4.75 M-0.45 9.4 L-3.4 9.0 -3.15 9.0 -0.5 9.05 -0.45 9.4 M-4.8 3.15 L-6.3 1.95 Q-4.0 3.6 -1.85 1.6 -2.45 2.75 -3.6 3.35 -4.2 3.65 -4.8 3.15 M-6.65 1.75 Q-7.5 1.75 -7.85 0.95 L-7.8 0.9 -7.7 0.8 -7.6 0.75 Q-7.0 1.1 -6.7 1.7 L-6.65 1.75" fill="#a95101" fill-rule="evenodd" stroke="none"/>
    </g>
  </defs>
</svg>
